static/images/illustrations/custom-domain-blogger.svg

<svg height="1100" viewBox="0 0 1400 1100" width="1400" xmlns="http://www.w3.org/2000/svg"><g fill="none" fill-rule="evenodd"><path d="m0 0h1400v1100h-1400z" fill="#fff"/><g transform="translate(110 821)"><path d="m97.69 220.81c-2.161907-15.572757-7.0499176-30.642995-14.44-44.52-7.35-13.87-17-26.69-26.83-40.2l-.06-.09c-1.9235349-2.673929-1.6504885-6.342759.6476681-8.702495 2.2981567-2.359737 5.9584866-2.729679 8.6823319-.877505 14.952117 10.444906 27.0835218 24.431581 35.31 40.71 8.4 16.34 12.74 35.56 10.08 53.87-.482087 3.323852-3.331369 5.789691-6.69 5.789691s-6.2079127-2.465839-6.69-5.789691zm72.12-42.48c-1.72-14.28-5.8-28.09-10.39-41.55-4.750287-13.373755-10.722174-26.2816-17.84-38.56-6.306532-10.8678096-13.419844-21.2469612-21.28-31.05 11.170963-11.2001756 14.469941-28.0387608 8.351247-42.6262873-6.118693-14.58752656-20.442908-24.0341172-36.261247-23.9137127-10.5705751.10545721-20.669613 4.39098702-28.09 11.92-14.9473486 15.1685972-14.768264 39.5823132.4 54.53l.63.61c7.3288494 6.7732877 17.0971184 10.2748475 27.06 9.7 5.4200838.4274863 10.865038-.418365 15.9-2.47 5.72 10.74 11.46 21.33 16.59 32.18 5.87 12 11.1 24.19 15.85 36.51 4.580277 12.331446 8.289391 24.969165 11.1 37.82 2.710235 12.859683 4.319393 25.926983 4.81 39.06v.09c.146896 3.465496 2.903607 6.251727 6.367341 6.435528 3.463735.1838 6.499832-2.29504 7.012659-5.725528 1.940308-14.259295 1.869619-28.720355-.21-42.96zm-98.35-137.7c.3198579-5.4334258 2.6219722-10.5607004 6.47-14.41 3.8640396-3.7242803 9.0439285-5.7696354 14.41-5.69 10.64 0 20.35 9.1 20.58 20.1.93 10.92-8.21 22-20.58 23.34-12.43-1-21.68-12.27-20.87-23.33z" fill="#ccced0" fill-rule="nonzero"/><path d="m6.92 214.19c96.88-1.073333 193.76-1.88 290.64-2.42l290.64-.83 290.64.49 145.31 1 145.31 1.75c3.70031 0 6.7 2.999692 6.7 6.7s-2.99969 6.7-6.7 6.7l-145.31 1.75-145.31 1-290.64.49-290.64-.82c-96.88-.4-193.76-1.206667-290.64-2.42-3.70030782 0-6.7-2.999692-6.7-6.7s2.99969218-6.7 6.7-6.7z" fill="#969ca1"/></g><path d="m677.574812 661.792682c-.199604 59.999259.279445 119.998519.489029 179.976659.628753 59.97814 1.237545 119.977399 2.774495 179.976659.13887 7.60788 3.093797 13.62393 6.691721 13.62393s6.552851-6.01605 6.691721-13.62393c1.51699-59.99926 2.115801-119.998519 2.764514-179.976659.219565-59.97814.698614-119.9774.48903-179.976659-.159683-31.847547-.179644-63.695095-.279446-95.563762l-19.301698.950358c-.129742 31.551881-.149703 63.082642-.319366 94.613404z" fill="#ccced0" transform="matrix(.99254615 -.12186934 .12186934 .99254615 -92.468177 89.757523)"/><g transform="translate(290 173)"><path d="m8.26 71.33 666.38-70.39 36.79 348.26c.50125 4.782392-2.967875 9.066203-7.75 9.57l-666.38 70.4-36.79-348.27c-.24355377-2.2956199.43524952-4.5939213 1.88694649-6.3888489 1.45169696-1.7949277 3.5572532-2.9393034 5.85305351-3.1811511z" fill="#46799a"/><path d="m59 109h545v182h-545z" fill="#46799a"/><text fill="#fff" font-family="NotoSans-Bold, Noto Sans" font-size="127" font-weight="bold" transform="matrix(.9945219 -.10452846 .10452846 .9945219 -20.426209 37.884746)"><tspan x="158.061905" y="196.820015">.BLOG</tspan></text></g></g></svg>

<?xml version="1.0" encoding="UTF-8"?><svg width="1400px" height="1100px" viewBox="0 0 1400 1100" version="1.1" xmlns="http://www.w3.org/2000/svg" xmlns:xlink="http://www.w3.org/1999/xlink"><title>custom-domain.svg</title><desc>Created with Sketch.</desc><g id="custom-domain.svg" stroke="none" stroke-width="1" fill="none" fill-rule="evenodd"><rect fill="#FFFFFF" x="0" y="0" width="1400" height="1100"></rect><g id="custom-domain" transform="translate(110.000000, 821.000000)"><g><path d="M97.69,220.81 C95.528093,205.237243 90.6400824,190.167005 83.25,176.29 C75.9,162.42 66.25,149.6 56.42,136.09 L56.36,136 C54.4364651,133.326071 54.7095115,129.657241 57.0076681,127.297505 C59.3058248,124.937768 62.9661547,124.567826 65.69,126.42 C80.642117,136.864906 92.7735218,150.851581 101,167.13 C109.4,183.47 113.74,202.69 111.08,221 C110.597913,224.323852 107.748631,226.789691 104.39,226.789691 C101.031369,226.789691 98.1820873,224.323852 97.7,221 L97.69,220.81 Z M169.81,178.33 C168.09,164.05 164.01,150.24 159.42,136.78 C154.669713,123.406245 148.697826,110.4984 141.58,98.22 C135.273468,87.3521904 128.160156,76.9730388 120.3,67.17 C131.470963,55.9698244 134.769941,39.1312392 128.651247,24.5437127 C122.532554,9.95618614 108.208339,0.509595496 92.39,0.63 C81.8194249,0.735457212 71.720387,5.02098702 64.3,12.55 C49.3526514,27.7185972 49.531736,52.1323132 64.7,67.08 L65.33,67.69 C72.6588494,74.4632877 82.4271184,77.9648475 92.39,77.39 C97.8100838,77.8174863 103.255038,76.971635 108.29,74.92 C114.01,85.66 119.75,96.25 124.88,107.1 C130.75,119.1 135.98,131.29 140.73,143.61 C145.310277,155.941446 149.019391,168.579165 151.83,181.43 C154.540235,194.289683 156.149393,207.356983 156.64,220.49 L156.64,220.58 C156.786896,224.045496 159.543607,226.831727 163.007341,227.015528 C166.471076,227.199328 169.507173,224.720488 170.02,221.29 C171.960308,207.030705 171.889619,192.569645 169.81,178.33 Z M71.46,40.63 C71.7798579,35.1965742 74.0819722,30.0692996 77.93,26.22 C81.7940396,22.4957197 86.9739285,20.4503646 92.34,20.53 C102.98,20.53 112.69,29.63 112.92,40.63 C113.85,51.55 104.71,62.63 92.34,63.97 C79.91,62.97 70.66,51.7 71.47,40.64 L71.46,40.63 Z" id="Shape" fill="#CCCED0" fill-rule="nonzero"></path><path d="M6.92,214.19 C103.8,213.116667 200.68,212.31 297.56,211.77 L588.2,210.94 L878.84,211.43 L1024.15,212.43 L1169.46,214.18 C1173.16031,214.18 1176.16,217.179692 1176.16,220.88 C1176.16,224.580308 1173.16031,227.58 1169.46,227.58 L1024.15,229.33 L878.84,230.33 L588.2,230.82 L297.56,230 C200.68,229.6 103.8,228.793333 6.92,227.58 C3.21969218,227.58 0.22,224.580308 0.22,220.88 C0.22,217.179692 3.21969218,214.18 6.92,214.18 L6.92,214.19 Z" id="Path" fill="#969CA1"></path></g></g><path d="M677.574812,661.792682 C677.375208,721.791941 677.854257,781.791201 678.063841,841.769341 C678.692594,901.747481 679.301386,961.74674 680.838336,1021.746 C680.977206,1029.35388 683.932133,1035.36993 687.530057,1035.36993 C691.127981,1035.36993 694.082908,1029.35388 694.221778,1021.746 C695.738768,961.74674 696.337579,901.747481 696.986292,841.769341 C697.205857,781.791201 697.684906,721.791941 697.475322,661.792682 C697.315639,629.945135 697.295678,598.097587 697.195876,566.22892 L677.894178,567.179278 C677.764436,598.731159 677.744475,630.26192 677.574812,661.792682 Z" id="Path" fill="#CCCED0" transform="translate(687.527175, 800.799426) rotate(-7.000000) translate(-687.527175, -800.799426) "></path><g id="Group" transform="translate(290.000000, 173.000000)"><path d="M8.26,71.33 L674.64,0.94 L711.43,349.2 C711.93125,353.982392 708.462125,358.266203 703.68,358.77 L37.3,429.17 L0.51,80.9 C0.266446233,78.6043801 0.945249516,76.3060787 2.39694649,74.5111511 C3.84864345,72.7162234 5.95419969,71.5718477 8.25,71.33 L8.26,71.33 Z" id="Path" fill="#46799A"></path><rect id="Rectangle" fill="#46799A" x="59" y="109" width="545" height="182"></rect><text id=".BLOG" transform="translate(351.228905, 213.820015) rotate(-6.000000) translate(-351.228905, -213.820015) " font-family="NotoSans-Bold, Noto Sans" font-size="127" font-weight="bold" fill="#FFFFFF"><tspan x="158.061905" y="196.820015">.BLOG</tspan></text></g></g></svg>
